X: 10041
T: AULD LANG SYNE
C:
%R: march
B: Elias Howe "The Musician's Companion" Part 1 1842 p.4 #1
S: http://imslp.org/wiki/The_Musician's_Companion_(Howe,_Elias)
Z: 2015 John Chambers <jc:trillian.mit.edu>
M: C
L: 1/8
K: G
% - - - - - - - - - - - - - - - - - - - - - - - - -
V: 1 staves=3
D2 |\
G3 G G2 B2 | A3 G A2 BA | G3 G B2 d2 | e4 g3 e |\
d3 B B2 G2 | A3 G A2 BA | G3 E E2 D2 | G4 z2 :|
|: e2 |\
d3 B B2 G2 | A3 G A2 e2 | d3 B B2 d2 | e4 g3 e |\
d3 B B2 G2 | A3 G A2 BA | G3 E E2 D2 | G4 z2 :|
% - - - - - - - - - - - - - - - - - - - - - - - - -
V: 2
D2 |\
B,3 B, B,2 D2 | C3 B, C2 DC | D3 C D2G2 | G4 e3 c |\
B3 G G2 B,2 | C3 B, C2 DC | B,3 G, C2 C2 | B,4 z2 :|
|: c2 |\
B3 G G2 D2 | F3 E F2 c2 | B3 G G2 B2 | c4 z2 c2 |
B3 G G2 E2 | F3 E F2 GF | E3 C C2 C2 | B,4 z2 :|
% - - - - - - - - - - - - - - - - - - - - - - - - -
V: 3 clef=bass middle=d
D2 |\
G3 G G2 G2 | D3 D D2 D2 | G3 G G2 G2 | c4 C3 E |\
G3 E D3 ^D | E3 E C2 D2 | E3 E C2 D2 | G4 z2 :|
|: G2 |\
G3 G G2 B2 | d3 d d2 F2 | G3 G G2 G2 | c4 z2c2 |\
G3 G G2 B2 | d3 d d2 B2 | c3 c A2 d2 | G4 z2 :|
% - - - - - - - - - - - - - - - - - - - - - - - - -


